X:1
T:Woman from Windsor Locks, The
C:Ed Yother
C:c.2005
C:http://edyother.com
M:3/4
L:1/8
R:waltz
K:Gm
D2 | G2 G^F GB | d2 d2 B2 | c2 cd Bc | A2 ^F2 D2 |
G^F GB dg | b2 a2 g2 | ^f4 e2 | d4 D2 |
 G2 G^F GB | d2 d2 B2 | cd Bc AB | G2 ^F2 D2 |
G^F GB dg | b2 a2 g2 |  ^f4 g2 | a6 ||
|: b2 ba g2 | b2 ba g2 | ^f4 e2 | d6 |
ed ce dc | dc Bd cB | c2 B2 ^F2 |1 G6 :|2 G4 ||
